X:1
T:Tommy's Gone to Hilo
M:4/4
L:1/8
K:F
 z4 z2 z C| CD F4 A2| GD F4 A2| G4-G-F A2| G6 z G| GG G4 D2| FE D4 z2|\
 F3 G A3 F| G2 F4 z2|

